public/board/newspaper.svg

<?xml version="1.0" encoding="UTF-8" standalone="no"?>
<svg xmlns="http://www.w3.org/2000/svg" xmlns:x="http://www.w3.org/1999/xlink" viewBox="0 0 8 8"
	shape-rendering="crispEdges">
	<g id="a">
		<g id="b">
			<g id="c">
				<g id="d">
					<rect width="1" height="1" fill="#dcdcdc" style="stroke:#939393;stroke-width:0.012" id="e" />
					<use x="1" y="1" href="#e" x:href="#e" />
					<rect y="1" width="1" height="1" fill="#c9c9c9" style="stroke:#939393;stroke-width:0.012" id="f" />
					<use x="1" y="-1" href="#f" x:href="#f" />
					<g transform="scale(0.85 0.85)" transform-origin="1.5 0.5" id="g">
						<path x="1" y="2" style="fill:#939393;stroke:#939393;stroke-width:0.01;stroke-linejoin:miter"
							d="M 1.000005,0.7138657 1.713871,1e-7 h 0.02197 L 1.000005,0.7373036 Z m 0,-0.4042962 L 1.308598,1e-7 h 0.02197 L 1.000005,0.3305654 Z m 0,-0.1357418 L 1.173833,1e-7 h 0.02197 L 1.000005,0.1953127 Z m 0,0.2709955 L 1.443852,1e-7 h 0.02197 L 1.000005,0.4653312 Z m 0,0.1357417 L 1.578617,1e-7 h 0.02197 L 1.000005,0.6020499 Z m 0,0.2680665 L 1.848636,1e-7 h 0.02197 L 1.000005,0.8720684 Z m 0.951658,0.1508787 h -0.021 l 0.06934,-0.0683599 v 0.021973 z M 1.000005,0.060547 V 0.039063 L 1.038575,0 h 0.02197 z M 1.795901,0.9995101 2.000003,0.7963855 v 0.022461 L 1.818851,0.9995102 Z m -0.135252,0 0.339354,-0.3374023 v 0.021973 L 1.684574,0.9995102 Z m -0.134766,0 0.47412,-0.4736321 V 0.548827 L 1.548832,0.9995101 Z m -0.138184,0 0.612304,-0.6108388 v 0.021973 L 1.409672,0.9995101 Z m -0.134765,0 0.747069,-0.7460925 v 0.021973 L 1.274906,0.9995102 Z m -0.135253,0 0.882322,-0.8808582 v 0.021973 L 1.139653,0.9995102 Z M 1.000005,0.9838851 1.98389,1e-7 Q 2,1e-7 2,0.0034201 l -0.99365,0.996092 q -0.0063,0 -0.0063,-0.015625 z" />
					</g>
					<use x="-1" y="1" href="#g" x:href="#g" />
				</g>
				<use x="2" href="#d" x:href="#d" />
			</g>
			<use x="4" href="#c" x:href="#c" />
		</g>
		<use y="2" href="#b" x:href="#b" />
	</g>
	<use y="4" href="#a" x:href="#a" />
</svg>

<svg xmlns="http://www.w3.org/2000/svg" xmlns:x="http://www.w3.org/1999/xlink" shape-rendering="crispEdges" viewBox="0 0 8 8"><g id="g"><g id="f"><g id="e"><g id="d"><path id="a" fill="#dcdcdc" d="M0 0h1v1H0z" style="stroke:#939393;stroke-width:.012"/><use x:href="#a" x="1" y="1" href="#a"/><path id="b" fill="#c9c9c9" d="M0 1h1v1H0z" style="stroke:#939393;stroke-width:.012"/><use x:href="#b" x="1" y="-1" href="#b"/><path id="c" d="M1 .71387 1.71388 0h.02197L1 .7373Zm0-.4043L1.3086 0h.02197L1 .33057Zm0-.13574L1.17383 0h.02197L1 .19531Zm0 .271L1.44386 0h.02197l-.46581.46533Zm0 .13573L1.57863 0h.02197L1 .60205Zm0 .26807L1.84864 0h.02197L1 .87207Zm.95166.15088h-.021L2 .93115v.02197zM1.00001.06055V.03906L1.03856 0h.02198zm.7959.93896L2 .79639v.02246L1.81884.9995Zm-.13526 0L2 .66211v.02197l-.31543.31543Zm-.13477 0L2 .52588v.02295L1.54883.9995Zm-.13818 0L2 .38867v.02197l-.59033.58887Zm-.13477 0L2 .25341V.2754l-.7251.72412Zm-.13525 0L2 .11865v.02197l-.86035.85889ZM1.00001.98389 1.98388 0Q2 0 2 .00342l-.99365.9961q-.0063 0-.0063-.01563z" style="fill:#939393;stroke:#939393;stroke-width:.01;stroke-linejoin:miter" transform="scale(.85)" transform-origin="1.5 0.5"/><use x:href="#c" x="-1" y="1" href="#c"/></g><use x:href="#d" x="2" href="#d"/></g><use x:href="#e" x="4" href="#e"/></g><use x:href="#f" y="2" href="#f"/></g><use x:href="#g" y="4" href="#g"/></svg>
